svg/SJJB-OpenStreetMapIcons/poi/boundary_administrative.svg

<?xml version="1.0" encoding="UTF-8" standalone="no"?>
<!-- Created with Inkscape (http://www.inkscape.org/) -->
<svg
   xmlns:dc="http://purl.org/dc/elements/1.1/"
   xmlns:cc="http://creativecommons.org/ns#"
   xmlns:rdf="http://www.w3.org/1999/02/22-rdf-syntax-ns#"
   xmlns:svg="http://www.w3.org/2000/svg"
   xmlns="http://www.w3.org/2000/svg"
   xmlns:sodipodi="http://sodipodi.sourceforge.net/DTD/sodipodi-0.dtd"
   xmlns:inkscape="http://www.inkscape.org/namespaces/inkscape"
   version="1.0"
   width="580"
   height="580"
   id="svg2"
   sodipodi:version="0.32"
   inkscape:version="0.46"
   sodipodi:docname="poi_boundary_administrative.svg"
   sodipodi:docbase="s:\Data\FacilityIcons"
   inkscape:output_extension="org.inkscape.output.svg.inkscape">
  <metadata
     id="metadata2975">
    <rdf:RDF>
      <cc:Work
         rdf:about="">
        <dc:format>image/svg+xml</dc:format>
        <dc:type
           rdf:resource="http://purl.org/dc/dcmitype/StillImage" />
        <cc:license
           rdf:resource="http://web.resource.org/cc/PublicDomain" />
        <dc:language>en</dc:language>
      </cc:Work>
    </rdf:RDF>
  </metadata>
  <sodipodi:namedview
     inkscape:window-height="978"
     inkscape:window-width="1400"
     inkscape:pageshadow="2"
     inkscape:pageopacity="0.0"
     guidetolerance="10.0"
     gridtolerance="10.0"
     objecttolerance="10.0"
     borderopacity="1.0"
     bordercolor="#666666"
     pagecolor="#ffffff"
     id="base"
     inkscape:zoom="1.3034483"
     inkscape:cx="241.93789"
     inkscape:cy="286.31426"
     inkscape:window-x="-4"
     inkscape:window-y="-4"
     inkscape:current-layer="svg2"
     showgrid="false" />
  <defs
     id="defs4">
    <inkscape:perspective
       sodipodi:type="inkscape:persp3d"
       inkscape:vp_x="0 : 290 : 1"
       inkscape:vp_y="0 : 1000 : 0"
       inkscape:vp_z="580 : 290 : 1"
       inkscape:persp3d-origin="290 : 193.33333 : 1"
       id="perspective2441" />
    <inkscape:perspective
       id="perspective3452"
       inkscape:persp3d-origin="30 : 20 : 1"
       inkscape:vp_z="60 : 30 : 1"
       inkscape:vp_y="0 : 1000 : 0"
       inkscape:vp_x="0 : 30 : 1"
       sodipodi:type="inkscape:persp3d" />
    <symbol
       viewBox="244.5 110 489 219.9"
       id="symbol-university">
      <path
         id="path4460"
         d="M79,43l57,119c0,0,21-96,104-96s124,106,124,106l43-133l82-17L0,17L79,43z" />
      <path
         id="path4462"
         d="M94,176l-21,39"
         stroke-width="20"
         stroke="#000000"
         fill="none" />
      <path
         id="path4464"
         d="M300,19c0,10.5-22.6,19-50.5,19S199,29.5,199,19s22.6-19,50.5-19S300,8.5,300,19z" />
      <path
         id="path4466"
         d="M112,216l-16-38L64,88c0,0-9-8-4-35s16-24,16-24"
         stroke-width="20"
         stroke="#000000"
         ill="none" />
    </symbol>
    <inkscape:perspective
       id="perspective4471"
       inkscape:persp3d-origin="372.04724 : 350.78739 : 1"
       inkscape:vp_z="744.09448 : 526.18109 : 1"
       inkscape:vp_y="0 : 1000 : 0"
       inkscape:vp_x="0 : 526.18109 : 1"
       sodipodi:type="inkscape:persp3d" />
    <inkscape:perspective
       id="perspective4668"
       inkscape:persp3d-origin="6 : 4 : 1"
       inkscape:vp_z="12 : 6 : 1"
       inkscape:vp_y="0 : 1000 : 0"
       inkscape:vp_x="0 : 6 : 1"
       sodipodi:type="inkscape:persp3d" />
  </defs>
  <g
     id="g1327">
    <path
       d="M 66.275,1.768 C 24.94,1.768 1.704,23.139 1.704,66.804 L 1.704,516.927 C 1.704,557.771 22.599,579.156 63.896,579.156 L 515.92,579.156 C 557.227,579.156 578.149,558.841 578.149,516.927 L 578.149,66.804 C 578.149,24.203 557.227,1.768 514.628,1.768 C 514.624,1.768 66.133,1.625 66.275,1.768 z "
       style="fill:#111;stroke:#eee;stroke-width:3.40799999"
       id="path1329" />
  </g>
  <g
     id="layer3"
     inkscape:label="Layout"
     style="display:none;stroke:#757575;stroke-opacity:1"
     transform="matrix(48.14969,0,0,48.14969,-536.27327,-33.306752)">
    <rect
       style="fill:none;stroke:#757575;stroke-width:0.10000000000000001;stroke-miterlimit:4;stroke-dasharray:none;stroke-opacity:1;display:inline"
       id="rect4134"
       width="10"
       height="10"
       x="1"
       y="1" />
    <rect
       style="fill:none;stroke:#757575;stroke-width:0.10000000000000001;stroke-miterlimit:4;stroke-dasharray:none;stroke-opacity:1;display:inline"
       id="rect4136"
       width="8"
       height="8"
       x="2"
       y="2" />
  </g>
  <path
     style="fill:#ffffff;fill-opacity:1;fill-rule:evenodd;stroke:#ffffff;stroke-width:18.03055191;stroke-linecap:round;stroke-linejoin:round;stroke-miterlimit:4;stroke-dasharray:none;stroke-opacity:1"
     d="M 27.242741,-248.97792 L 39.548641,-228.79084 L 152.86371,-184.08575 L 151.87803,-241.06807 L 40.287901,-263.53323 L 27.242741,-248.97792 z"
     id="path3289"
     sodipodi:nodetypes="cccccc" />
  <g
     id="g3243"
     transform="matrix(0.828126,0,0,0.828126,41.092478,2.1229832)">
    <path
       sodipodi:nodetypes="ccccc"
       id="path2459"
       d="M 264.73327,44.019017 L 310.30541,44.019017 L 310.30541,543.11227 L 265.20918,543.11227 L 264.73327,44.019017 z"
       style="fill:#ffffff;fill-opacity:1;fill-rule:evenodd;stroke:#ffffff;stroke-width:18.6970005;stroke-linecap:round;stroke-linejoin:round;stroke-miterlimit:4;stroke-dasharray:none;stroke-opacity:1" />
    <path
       sodipodi:nodetypes="cccccc"
       id="path3239"
       d="M 488.33212,219.37826 L 458.13223,241.75791 L 280.46698,207.58108 L 281.55196,157.9433 L 457.3185,180.72785 L 488.33212,219.37826 z"
       style="fill:#ffffff;fill-opacity:1;fill-rule:evenodd;stroke:#ffffff;stroke-width:18.79999924;stroke-linecap:round;stroke-linejoin:round;stroke-miterlimit:4;stroke-dasharray:none;stroke-opacity:1" />
    <path
       sodipodi:nodetypes="cccccc"
       id="path3263"
       d="M 75.406015,253.82829 L 109.31161,273.08665 L 286.97686,216.12527 L 289.14682,164.31755 L 110.12534,212.05661 L 75.406015,253.82829 z"
       style="fill:#ffffff;fill-opacity:1;fill-rule:evenodd;stroke:#ffffff;stroke-width:18.79999924;stroke-linecap:round;stroke-linejoin:round;stroke-miterlimit:4;stroke-dasharray:none;stroke-opacity:1" />
    <path
       sodipodi:nodetypes="cccccc"
       id="path3287"
       d="M 437.16762,78.58435 L 416.18189,114.7062 L 269.23248,154.39155 L 258.2834,103.91909 L 415.44263,63.114015 L 437.16762,78.58435 z"
       style="fill:#ffffff;fill-opacity:1;fill-rule:evenodd;stroke:#ffffff;stroke-width:18.03055191;stroke-linecap:round;stroke-linejoin:round;stroke-miterlimit:4;stroke-dasharray:none;stroke-opacity:1" />
    <path
       sodipodi:nodetypes="cccccc"
       id="path3291"
       d="M 136.23345,85.460706 L 157.21918,121.58256 L 304.16859,161.26791 L 315.11767,110.79545 L 157.95844,69.990366 L 136.23345,85.460706 z"
       style="fill:#ffffff;fill-opacity:1;fill-rule:evenodd;stroke:#ffffff;stroke-width:18.03055191;stroke-linecap:round;stroke-linejoin:round;stroke-miterlimit:4;stroke-dasharray:none;stroke-opacity:1" />
  </g>
  <path
     style="fill:none;fill-rule:evenodd;stroke:#ffffff;stroke-width:19.51517486999999900;stroke-linecap:round;stroke-linejoin:round;stroke-miterlimit:4;stroke-dasharray:none;stroke-opacity:1"
     d="M 37.149451,370.73869 C 37.063745,369.71304 106.37416,394.9003 106.37416,394.9003 L 62.871607,426.84523 L 118.69989,462.50469 L 64.465029,478.64418 L 120.19212,513.54654 L 172.57224,498.60137 L 185.88437,519.72259 L 240.33843,537.62518 L 332.79822,531.34187 L 390.30177,513.60167 L 461.18975,521.86424 L 476.91309,506.05471 L 508.77281,501.87867 L 542.84981,473.64826 L 505.1476,420.90198 L 381.1653,374.09895 L 508.77281,345.86855 L 452.94452,331.75336 L 357.23891,332.49625 L 249.93258,342.15403 L 178.87842,339.9253 L 153.50193,352.5547 C 153.50193,352.5547 59.298844,367.79358 37.149451,370.73869"
     id="path2471"
     sodipodi:nodetypes="cccccccccccccccccccccccs" />
  <path
     sodipodi:nodetypes="cccccccccccccccccccccccs"
     id="path3250"
     d="M 37.149451,370.73869 C 37.063745,369.71304 106.37416,394.9003 106.37416,394.9003 L 62.871607,426.84523 L 118.69989,462.50469 L 64.465029,478.64418 L 120.19212,513.54654 L 172.57224,498.60137 L 185.88437,519.72259 L 240.33843,537.62518 L 332.79822,531.34187 L 390.30177,513.60167 L 461.18975,521.86424 L 476.91309,506.05471 L 508.77281,501.87867 L 542.84981,473.64826 L 505.1476,420.90198 L 381.1653,374.09895 L 508.77281,345.86855 L 452.94452,331.75336 L 357.23891,332.49625 L 249.93258,342.15403 L 178.87842,339.9253 L 153.50193,352.5547 C 153.50193,352.5547 59.298844,367.79358 37.149451,370.73869"
     style="fill:#ffffff;fill-rule:evenodd;stroke:#ffffff;stroke-width:19.51517486999999900;stroke-linecap:round;stroke-linejoin:round;stroke-miterlimit:4;stroke-dasharray:none;stroke-opacity:1;fill-opacity:1;opacity:0.2" />
</svg>

<svg xmlns="http://www.w3.org/2000/svg" viewBox="0 0 580 580"><path d="m66.28 1.768c-41.34 0-64.57 21.371-64.57 65.04v450.12c0 40.844 20.895 62.23 62.19 62.23h452.02c41.31 0 62.23-20.315 62.23-62.23v-450.12c0-42.601-20.922-65.04-63.52-65.04-.004 0-448.5-.143-448.35 0z" fill="#111" stroke="#eee" stroke-width="3.408"/><g transform="matrix(.82813 0 0 .82813 41.09 2.123)" fill="#fff" fill-rule="evenodd" stroke="#fff" stroke-linejoin="round" stroke-linecap="round"><path d="m264.73 44.02h45.572v499.09h-45.1l-.476-499.09z" stroke-width="18.697"/><g stroke-width="18.8"><path d="m488.33 219.38l-30.2 22.38-177.67-34.18 1.085-49.638 175.77 22.785 31.01 38.65z"/><path d="m75.41 253.83l33.906 19.258 177.67-56.961 2.17-51.808-179.02 47.739-34.719 41.772z"/></g><g stroke-width="18.03"><path d="m437.17 78.58l-20.986 36.12-146.95 39.685-10.949-50.47 157.16-40.805 21.725 15.47z"/><path d="m136.23 85.46l20.986 36.12 146.95 39.685 10.949-50.47-157.16-40.805-21.725 15.47z"/></g></g><g fill-rule="evenodd" stroke="#fff" stroke-linejoin="round" stroke-linecap="round" stroke-width="19.515"><path d="m37.15 370.74c-.086-1.026 69.22 24.16 69.22 24.16l-43.503 31.945 55.828 35.659-54.23 16.14 55.727 34.902 52.38-14.945 13.312 21.12 54.45 17.903 92.46-6.283 57.5-17.74 70.888 8.263 15.723-15.81 31.86-4.176 34.08-28.23-37.702-52.746-123.98-46.803 127.61-28.23-55.828-14.12-95.71.743-107.31 9.658-71.05-2.229-25.376 12.629c0 0-94.2 15.239-116.35 18.18" fill="none"/><path d="m37.15 370.74c-.086-1.026 69.22 24.16 69.22 24.16l-43.503 31.945 55.828 35.659-54.23 16.14 55.727 34.902 52.38-14.945 13.312 21.12 54.45 17.903 92.46-6.283 57.5-17.74 70.888 8.263 15.723-15.81 31.86-4.176 34.08-28.23-37.702-52.746-123.98-46.803 127.61-28.23-55.828-14.12-95.71.743-107.31 9.658-71.05-2.229-25.376 12.629c0 0-94.2 15.239-116.35 18.18" opacity=".2" fill="#fff"/></g></svg>
